src/amo/components/CategoryIcon/img/performance.svg

<svg xmlns="http://www.w3.org/2000/svg" width="64" height="64" viewBox="0 0 64 64">
  <g>
    <path d="M24.6187552 14.7142339C26.8582025 13.7288771 29.33347 13.2430769 32 13.2430769 42.3829322 13.2430769 50.8553846 21.6869062 50.8553846 32.0984615 50.8553846 32.7781966 51.4064188 33.3292308 52.0861538 33.3292308 52.7658889 33.3292308 53.3169231 32.7781966 53.3169231 32.0984615 53.3169231 20.3255678 43.7405411 10.7815385 32 10.7815385 29.0026472 10.7815385 26.1902166 11.3335108 23.6273986 12.4611507 23.0052269 12.7349063 22.7227798 13.4611989 22.9965353 14.0833706 23.2702909 14.7055423 23.9965835 14.9879894 24.6187552 14.7142339zM13.1446154 32C13.1446154 29.5126207 13.6582552 27.0144634 14.6319713 24.5801731 14.8844186 23.949055 14.5774452 23.2327837 13.946327 22.9803364 13.3152088 22.7278891 12.5989375 23.0348625 12.3464902 23.6659807 11.260088 26.3819863 10.6830769 29.1883583 10.6830769 32 10.6830769 32.6797351 11.2341111 33.2307692 11.9138462 33.2307692 12.5935812 33.2307692 13.1446154 32.6797351 13.1446154 32zM28.7349007 26.9943301L17.8056699 16.0650993C17.3250246 15.5844541 16.5457446 15.5844541 16.0650993 16.0650993 15.5844541 16.5457446 15.5844541 17.3250246 16.0650993 17.8056699L26.9943301 28.7349007C27.4749754 29.2155459 28.2542554 29.2155459 28.7349007 28.7349007 29.2155459 28.2542554 29.2155459 27.4749754 28.7349007 26.9943301z"/>
    <path d="M32,64 C14.326888,64 0,49.673112 0,32 C0,14.326888 14.326888,0 32,0 C49.673112,0 64,14.326888 64,32 C64,49.673112 49.673112,64 32,64 Z M32,59.0769231 C46.9541717,59.0769231 59.0769231,46.9541717 59.0769231,32 C59.0769231,17.0458283 46.9541717,4.92307692 32,4.92307692 C17.0458283,4.92307692 4.92307692,17.0458283 4.92307692,32 C4.92307692,46.9541717 17.0458283,59.0769231 32,59.0769231 Z"/>
    <path d="M32,39.1384615 C28.0575366,39.1384615 24.8615385,35.9424634 24.8615385,32 C24.8615385,28.0575366 28.0575366,24.8615385 32,24.8615385 C35.9424634,24.8615385 39.1384615,28.0575366 39.1384615,32 C39.1384615,35.9424634 35.9424634,39.1384615 32,39.1384615 Z M32,36.6769231 C34.5829933,36.6769231 36.6769231,34.5829933 36.6769231,32 C36.6769231,29.4170067 34.5829933,27.3230769 32,27.3230769 C29.4170067,27.3230769 27.3230769,29.4170067 27.3230769,32 C27.3230769,34.5829933 29.4170067,36.6769231 32,36.6769231 Z"/>
  </g>
</svg>

<svg xmlns="http://www.w3.org/2000/svg" width="64" height="64"><path d="M24.619 14.714c2.24-.985 4.714-1.47 7.381-1.47 10.383 0 18.855 8.443 18.855 18.854a1.23 1.23 0 1 0 2.462 0c0-11.772-9.576-21.316-21.317-21.316-2.997 0-5.81.552-8.373 1.68a1.23 1.23 0 0 0 .992 2.252zM13.145 32c0-2.487.513-4.986 1.487-7.42a1.23 1.23 0 1 0-2.286-.914c-1.086 2.716-1.663 5.522-1.663 8.334a1.23 1.23 0 0 0 2.462 0zm15.59-5.006-10.93-10.929a1.23 1.23 0 0 0-1.74 1.74l10.93 10.93a1.23 1.23 0 0 0 1.74-1.74z"/><path d="M32 64C14.327 64 0 49.673 0 32 0 14.327 14.327 0 32 0c17.673 0 32 14.327 32 32 0 17.673-14.327 32-32 32Zm0-4.923c14.954 0 27.077-12.123 27.077-27.077C59.077 17.046 46.954 4.923 32 4.923 17.046 4.923 4.923 17.046 4.923 32c0 14.954 12.123 27.077 27.077 27.077Z"/><path d="M32 39.138a7.138 7.138 0 1 1 0-14.276 7.138 7.138 0 0 1 0 14.276Zm0-2.461a4.677 4.677 0 1 0 0-9.354 4.677 4.677 0 0 0 0 9.354Z"/></svg>
